X: 1235
T: Kasaphavası
C: (Anonim)
O: Turkey
F: http://compmusic.upf.edu/node/140
N: nihavent--kasaphavasi--duyek----
N: makam= nihavent
N: form= kasaphavasi
N: usul= duyek = 8/4
M: 8/4
L: 1/16
K: C _B _e  
Q: 1/4=144
%%MIDI tuningsystem comma53
de f4 _g2 f2 g2 f2 e2  | de f4 e2 d4 B2 B2  | \
w:   |   | 
de f4 _g2 f2 g2 f2 e2  | 
w:   | 
de f4 e2 d2 d2 d2 d2  | d4 e2 d2 c2 B2 A2 G2  | \
w:   |   | 
GA B4 A2 GG G2 dd d2  | 
w:   | 
d4 e2 d2 c2 B2 A2 G2  | GA B4 A2 G4 z4  | \
w:   |   | 
de f4 _g2 f2 g2 f2 e2  | 
w:   | 
de f4 e2 d4 B2 B2  | de f4 _g2 f2 g2 f2 e2  | \
w:   |   | 
de f4 e2 d2 d2 d2 d2  | 
w:   | 
d4 e2 d2 c2 B2 A2 G2  | GA B4 A2 GG G2 dd d2  | \
w:   |   | 
d4 e2 d2 c2 B2 A2 G2  | 
w:   | 
GA B4 A2 G4 z4  | |


